X:1
T:The Overgate
M:4/4
L:1/4
K:F
 F/2F/2| G G c c| B G G3/2 F/2| G G c/2c/2 c| B3 c| d c c d/2d/2| B G/2G/2 G3/2 F/2|\
 G G/2G/2 B D| F2 G3/2 F/2| D C C2| D3/2 C/2D/2 F3/2| G3/2 A/2B/2 B3/2|\
 D C C||
